core/static/images/twitter.svg

<?xml version="1.0" encoding="UTF-8"?>
<svg width="36px" height="36px" viewBox="0 0 36 36" version="1.1" xmlns="http://www.w3.org/2000/svg" xmlns:xlink="http://www.w3.org/1999/xlink">
    <!-- Generator: Sketch 46.1 (44463) - http://www.bohemiancoding.com/sketch -->
    <title>Group 11@2x</title>
    <desc>Created with Sketch.</desc>
    <defs></defs>
    <g id="Guerilla-Prototype-5" stroke="none" stroke-width="1" fill="none" fill-rule="evenodd">
        <g id="Prototype-5-Article" transform="translate(-59.000000, -361.000000)">
            <g id="Group-6" transform="translate(59.000000, 361.000000)">
                <g id="Group-12">
                    <g id="Group-11">
                        <g id="Group">
                            <rect id="Rectangle-2" fill="#0B89FF" x="0" y="0" width="36" height="36" rx="18"></rect>
                            <path d="M24.2329635,13.9763453 C24.8686388,13.5863127 25.3564008,12.9678584 25.5861948,12.2311304 C24.9910195,12.5922716 24.3333333,12.8550018 23.6307448,12.9958469 C23.0707871,12.3828097 22.2704702,12 21.3847508,12 C19.6863884,12 18.308505,13.412965 18.308505,15.1554713 C18.308505,15.402853 18.3349181,15.6430119 18.3877443,15.8741423 C15.8300757,15.7423257 13.5629512,14.4873601 12.0441979,12.5760202 C11.7791865,13.0436981 11.6277514,13.5863127 11.6277514,14.1641387 C11.6277514,15.2583965 12.1709808,16.2244493 12.9968304,16.7905381 C12.4932206,16.7751896 12.0177848,16.631636 11.6022187,16.3968942 L11.6022187,16.4357169 C11.6022187,17.9651499 12.6631449,19.2408812 14.0718436,19.5297941 C13.8138757,19.6038281 13.5418207,19.6408451 13.2609614,19.6408451 C13.0628632,19.6408451 12.8691671,19.6218852 12.6816341,19.5848682 C13.0734284,20.8380282 14.2091918,21.7508126 15.5562599,21.7751896 C14.5032576,22.6220657 13.1755591,23.1267606 11.7342842,23.1267606 C11.4860011,23.1267606 11.2403592,23.1123149 11,23.0834236 C12.3620356,23.9772481 13.9802782,24.5 15.7173798,24.5 C21.3785878,24.5 24.4733228,19.6923077 24.4733228,15.5220296 C24.4733228,15.384796 24.4706815,15.2475623 24.4653988,15.1130372 C25.0667371,14.6679307 25.5888361,14.1126761 26,13.4797761 C25.4488466,13.7307692 24.8554323,13.9005056 24.2329635,13.9763453 Z" id="Twitter" fill="#FFFFFF"></path>
                        </g>
                    </g>
                </g>
            </g>
        </g>
    </g>
</svg>

<svg xmlns="http://www.w3.org/2000/svg" width="36" height="36" viewBox="0 0 36 36">
    <g fill="none" fill-rule="evenodd">
        <rect width="36" height="36" fill="#006CCC" rx="18"/>
        <path fill="#FFF" d="M24.233 13.976a3.149 3.149 0 0 0 1.353-1.745 6.061 6.061 0 0 1-1.955.765A3.035 3.035 0 0 0 21.385 12c-1.699 0-3.076 1.413-3.076 3.155 0 .248.026.488.079.72-2.558-.133-4.825-1.388-6.344-3.299a3.213 3.213 0 0 0-.416 1.588c0 1.094.543 2.06 1.369 2.627a3.021 3.021 0 0 1-1.395-.394v.039c0 1.53 1.061 2.805 2.47 3.094-.258.074-.53.11-.811.11a2.99 2.99 0 0 1-.58-.055c.392 1.253 1.528 2.166 2.875 2.19A6.077 6.077 0 0 1 11 23.083a8.568 8.568 0 0 0 4.717 1.417c5.662 0 8.756-4.808 8.756-8.978 0-.137-.002-.274-.008-.409.602-.445 1.124-1 1.535-1.633a6.01 6.01 0 0 1-1.767.496z"/>
    </g>
</svg>
